img/Protection 1.svg

<svg width="193" height="285" viewBox="0 0 193 285" fill="none" xmlns="http://www.w3.org/2000/svg">
<path d="M27.922 9.795C28.636 10.0217 29.1913 10.39 29.588 10.9C29.996 11.3987 30.2 11.988 30.2 12.668C30.2 13.382 29.9677 14.0053 29.503 14.538C29.0383 15.0593 28.415 15.4617 27.633 15.745C26.8623 16.0283 26.018 16.17 25.1 16.17C24.3067 16.17 23.5077 16.0623 22.703 15.847C21.9097 15.6203 21.173 15.286 20.493 14.844L21.207 13.229C21.7283 13.5803 22.3063 13.8523 22.941 14.045C23.5757 14.2263 24.2047 14.317 24.828 14.317C25.7233 14.317 26.4657 14.1413 27.055 13.79C27.6557 13.4387 27.956 12.957 27.956 12.345C27.956 11.8237 27.7407 11.427 27.31 11.155C26.8793 10.883 26.2843 10.747 25.525 10.747H22.754V9.013H25.355C26.0123 9.013 26.528 8.877 26.902 8.605C27.276 8.333 27.463 7.96467 27.463 7.5C27.463 6.94467 27.208 6.514 26.698 6.208C26.1993 5.902 25.559 5.749 24.777 5.749C24.2443 5.749 23.6947 5.82833 23.128 5.987C22.5613 6.13433 22.0287 6.35533 21.53 6.65L20.833 4.865C21.445 4.53633 22.091 4.29267 22.771 4.134C23.4623 3.964 24.148 3.879 24.828 3.879C25.712 3.879 26.5223 4.015 27.259 4.287C28.007 4.559 28.602 4.95 29.044 5.46C29.486 5.95867 29.707 6.548 29.707 7.228C29.707 7.81733 29.5483 8.333 29.231 8.775C28.9137 9.217 28.4773 9.557 27.922 9.795ZM35.851 6.82C37.1884 6.82 38.2084 7.143 38.911 7.789C39.625 8.42367 39.982 9.387 39.982 10.679V16H37.976V14.895C37.7154 15.2917 37.3414 15.5977 36.854 15.813C36.378 16.017 35.8 16.119 35.12 16.119C34.44 16.119 33.845 16.0057 33.335 15.779C32.825 15.541 32.4284 15.218 32.145 14.81C31.873 14.3907 31.737 13.9203 31.737 13.399C31.737 12.583 32.0374 11.9313 32.638 11.444C33.25 10.9453 34.2077 10.696 35.511 10.696H37.857V10.56C37.857 9.92533 37.6644 9.438 37.279 9.098C36.905 8.758 36.344 8.588 35.596 8.588C35.086 8.588 34.5817 8.66733 34.083 8.826C33.5957 8.98467 33.182 9.20567 32.842 9.489L32.009 7.942C32.485 7.57933 33.0574 7.30167 33.726 7.109C34.3947 6.91633 35.103 6.82 35.851 6.82ZM35.562 14.572C36.0947 14.572 36.565 14.453 36.973 14.215C37.3924 13.9657 37.687 13.6143 37.857 13.161V12.107H35.664C34.44 12.107 33.828 12.5093 33.828 13.314C33.828 13.6993 33.981 14.0053 34.287 14.232C34.593 14.4587 35.018 14.572 35.562 14.572ZM55.9906 6.922V16H42.6116V6.922H44.7366V14.198H48.2556V6.922H50.3806V14.198H53.8656V6.922H55.9906ZM57.2996 14.198V17.87H55.3106V16H53.7976V14.198H57.2996ZM58.8479 6.922H60.9729V12.906L65.9879 6.922H67.9259V16H65.8009V10.016L60.8029 16H58.8479V6.922ZM77.9754 8.724H74.7964V16H72.6714V8.724H69.4754V6.922H77.9754V8.724ZM82.8999 6.82C84.2372 6.82 85.2572 7.143 85.9599 7.789C86.6739 8.42367 87.0309 9.387 87.0309 10.679V16H85.0249V14.895C84.7642 15.2917 84.3902 15.5977 83.9029 15.813C83.4269 16.017 82.8489 16.119 82.1689 16.119C81.4889 16.119 80.8939 16.0057 80.3839 15.779C79.8739 15.541 79.4772 15.218 79.1939 14.81C78.9219 14.3907 78.7859 13.9203 78.7859 13.399C78.7859 12.583 79.0862 11.9313 79.6869 11.444C80.2989 10.9453 81.2565 10.696 82.5599 10.696H84.9059V10.56C84.9059 9.92533 84.7132 9.438 84.3279 9.098C83.9539 8.758 83.3929 8.588 82.6449 8.588C82.1349 8.588 81.6305 8.66733 81.1319 8.826C80.6445 8.98467 80.2309 9.20567 79.8909 9.489L79.0579 7.942C79.5339 7.57933 80.1062 7.30167 80.7749 7.109C81.4435 6.91633 82.1519 6.82 82.8999 6.82ZM82.6109 14.572C83.1435 14.572 83.6139 14.453 84.0219 14.215C84.4412 13.9657 84.7359 13.6143 84.9059 13.161V12.107H82.7129C81.4889 12.107 80.8769 12.5093 80.8769 13.314C80.8769 13.6993 81.0299 14.0053 81.3359 14.232C81.6419 14.4587 82.0669 14.572 82.6109 14.572ZM98.4047 16.119C97.4867 16.119 96.6593 15.9207 95.9227 15.524C95.186 15.1273 94.608 14.5777 94.1887 13.875C93.7807 13.161 93.5767 12.3563 93.5767 11.461C93.5767 10.5657 93.7807 9.76667 94.1887 9.064C94.608 8.36133 95.186 7.81167 95.9227 7.415C96.6593 7.01833 97.4867 6.82 98.4047 6.82C99.334 6.82 100.167 7.01833 100.904 7.415C101.64 7.81167 102.213 8.36133 102.621 9.064C103.04 9.76667 103.25 10.5657 103.25 11.461C103.25 12.3563 103.04 13.161 102.621 13.875C102.213 14.5777 101.64 15.1273 100.904 15.524C100.167 15.9207 99.334 16.119 98.4047 16.119ZM98.4047 14.3C99.1867 14.3 99.8327 14.0393 100.343 13.518C100.853 12.9967 101.108 12.311 101.108 11.461C101.108 10.611 100.853 9.92533 100.343 9.404C99.8327 8.88267 99.1867 8.622 98.4047 8.622C97.6227 8.622 96.9767 8.88267 96.4667 9.404C95.968 9.92533 95.7187 10.611 95.7187 11.461C95.7187 12.311 95.968 12.9967 96.4667 13.518C96.9767 14.0393 97.6227 14.3 98.4047 14.3ZM112.208 8.724H109.029V16H106.904V8.724H103.708V6.922H112.208V8.724ZM127.016 6.922L122.766 16.731C122.369 17.717 121.887 18.4083 121.321 18.805C120.754 19.213 120.068 19.417 119.264 19.417C118.81 19.417 118.363 19.3433 117.921 19.196C117.479 19.0487 117.116 18.8447 116.833 18.584L117.683 17.02C117.887 17.2127 118.125 17.3657 118.397 17.479C118.68 17.5923 118.963 17.649 119.247 17.649C119.621 17.649 119.927 17.5527 120.165 17.36C120.414 17.1673 120.641 16.8443 120.845 16.391L120.998 16.034L117.037 6.922H119.247L122.103 13.637L124.976 6.922H127.016ZM137.617 14.198V18.023H135.628V16H128.624V18.023H126.652V14.198H127.077C127.655 14.1753 128.046 13.807 128.25 13.093C128.465 12.3677 128.607 11.3477 128.675 10.033L128.794 6.922H136.274V14.198H137.617ZM130.613 10.186C130.568 11.2287 130.483 12.0787 130.358 12.736C130.233 13.3933 130.007 13.8807 129.678 14.198H134.149V8.724H130.664L130.613 10.186ZM142.898 6.82C144.235 6.82 145.255 7.143 145.958 7.789C146.672 8.42367 147.029 9.387 147.029 10.679V16H145.023V14.895C144.762 15.2917 144.388 15.5977 143.901 15.813C143.425 16.017 142.847 16.119 142.167 16.119C141.487 16.119 140.892 16.0057 140.382 15.779C139.872 15.541 139.475 15.218 139.192 14.81C138.92 14.3907 138.784 13.9203 138.784 13.399C138.784 12.583 139.084 11.9313 139.685 11.444C140.297 10.9453 141.255 10.696 142.558 10.696H144.904V10.56C144.904 9.92533 144.711 9.438 144.326 9.098C143.952 8.758 143.391 8.588 142.643 8.588C142.133 8.588 141.629 8.66733 141.13 8.826C140.643 8.98467 140.229 9.20567 139.889 9.489L139.056 7.942C139.532 7.57933 140.104 7.30167 140.773 7.109C141.442 6.91633 142.15 6.82 142.898 6.82ZM142.609 14.572C143.142 14.572 143.612 14.453 144.02 14.215C144.439 13.9657 144.734 13.6143 144.904 13.161V12.107H142.711C141.487 12.107 140.875 12.5093 140.875 13.314C140.875 13.6993 141.028 14.0053 141.334 14.232C141.64 14.4587 142.065 14.572 142.609 14.572ZM154.69 6.82C155.574 6.82 156.362 7.01267 157.053 7.398C157.756 7.78333 158.306 8.32733 158.702 9.03C159.099 9.73267 159.297 10.543 159.297 11.461C159.297 12.379 159.099 13.195 158.702 13.909C158.306 14.6117 157.756 15.1557 157.053 15.541C156.362 15.9263 155.574 16.119 154.69 16.119C153.466 16.119 152.497 15.711 151.783 14.895V19.298H149.658V6.922H151.681V8.112C152.033 7.68133 152.463 7.35833 152.973 7.143C153.495 6.92767 154.067 6.82 154.69 6.82ZM154.452 14.3C155.234 14.3 155.875 14.0393 156.373 13.518C156.883 12.9967 157.138 12.311 157.138 11.461C157.138 10.611 156.883 9.92533 156.373 9.404C155.875 8.88267 155.234 8.622 154.452 8.622C153.942 8.622 153.483 8.741 153.075 8.979C152.667 9.20567 152.344 9.53433 152.106 9.965C151.868 10.3957 151.749 10.8943 151.749 11.461C151.749 12.0277 151.868 12.5263 152.106 12.957C152.344 13.3877 152.667 13.722 153.075 13.96C153.483 14.1867 153.942 14.3 154.452 14.3ZM164.679 6.82C166.016 6.82 167.036 7.143 167.739 7.789C168.453 8.42367 168.81 9.387 168.81 10.679V16H166.804V14.895C166.543 15.2917 166.169 15.5977 165.682 15.813C165.206 16.017 164.628 16.119 163.948 16.119C163.268 16.119 162.673 16.0057 162.163 15.779C161.653 15.541 161.256 15.218 160.973 14.81C160.701 14.3907 160.565 13.9203 160.565 13.399C160.565 12.583 160.865 11.9313 161.466 11.444C162.078 10.9453 163.036 10.696 164.339 10.696H166.685V10.56C166.685 9.92533 166.492 9.438 166.107 9.098C165.733 8.758 165.172 8.588 164.424 8.588C163.914 8.588 163.41 8.66733 162.911 8.826C162.424 8.98467 162.01 9.20567 161.67 9.489L160.837 7.942C161.313 7.57933 161.885 7.30167 162.554 7.109C163.223 6.91633 163.931 6.82 164.679 6.82ZM164.39 14.572C164.923 14.572 165.393 14.453 165.801 14.215C166.22 13.9657 166.515 13.6143 166.685 13.161V12.107H164.492C163.268 12.107 162.656 12.5093 162.656 13.314C162.656 13.6993 162.809 14.0053 163.115 14.232C163.421 14.4587 163.846 14.572 164.39 14.572ZM25.559 31.119C24.6183 31.119 23.774 30.9207 23.026 30.524C22.278 30.1273 21.6943 29.5777 21.275 28.875C20.8557 28.161 20.646 27.3563 20.646 26.461C20.646 25.5657 20.8557 24.7667 21.275 24.064C21.6943 23.3613 22.2723 22.8117 23.009 22.415C23.757 22.0183 24.607 21.82 25.559 21.82C26.4543 21.82 27.2363 22.0013 27.905 22.364C28.585 22.7267 29.095 23.248 29.435 23.928L27.803 24.88C27.5423 24.4607 27.2137 24.149 26.817 23.945C26.4317 23.7297 26.0067 23.622 25.542 23.622C24.7487 23.622 24.0913 23.8827 23.57 24.404C23.0487 24.914 22.788 25.5997 22.788 26.461C22.788 27.3223 23.043 28.0137 23.553 28.535C24.0743 29.045 24.7373 29.3 25.542 29.3C26.0067 29.3 26.4317 29.198 26.817 28.994C27.2137 28.7787 27.5423 28.4613 27.803 28.042L29.435 28.994C29.0837 29.674 28.568 30.201 27.888 30.575C27.2193 30.9377 26.443 31.119 25.559 31.119ZM40.0099 21.922V31H37.9019V23.724H33.4309V31H31.3059V21.922H40.0099ZM51.3772 26.512C51.3772 26.6593 51.3659 26.869 51.3432 27.141H44.2202C44.3449 27.8097 44.6679 28.3423 45.1892 28.739C45.7219 29.1243 46.3792 29.317 47.1612 29.317C48.1586 29.317 48.9802 28.9883 49.6262 28.331L50.7652 29.64C50.3572 30.1273 49.8416 30.4957 49.2182 30.745C48.5949 30.9943 47.8922 31.119 47.1102 31.119C46.1129 31.119 45.2346 30.9207 44.4752 30.524C43.7159 30.1273 43.1266 29.5777 42.7072 28.875C42.2992 28.161 42.0952 27.3563 42.0952 26.461C42.0952 25.577 42.2936 24.7837 42.6902 24.081C43.0982 23.367 43.6592 22.8117 44.3732 22.415C45.0872 22.0183 45.8919 21.82 46.7872 21.82C47.6712 21.82 48.4589 22.0183 49.1502 22.415C49.8529 22.8003 50.3969 23.35 50.7822 24.064C51.1789 24.7667 51.3772 25.5827 51.3772 26.512ZM46.7872 23.52C46.1072 23.52 45.5292 23.724 45.0532 24.132C44.5886 24.5287 44.3052 25.0613 44.2032 25.73H49.3542C49.2636 25.0727 48.9859 24.54 48.5212 24.132C48.0566 23.724 47.4786 23.52 46.7872 23.52ZM58.7334 21.82C59.6174 21.82 60.4051 22.0127 61.0964 22.398C61.7991 22.7833 62.3488 23.3273 62.7454 24.03C63.1421 24.7327 63.3404 25.543 63.3404 26.461C63.3404 27.379 63.1421 28.195 62.7454 28.909C62.3488 29.6117 61.7991 30.1557 61.0964 30.541C60.4051 30.9263 59.6174 31.119 58.7334 31.119C57.5094 31.119 56.5404 30.711 55.8264 29.895V34.298H53.7014V21.922H55.7244V23.112C56.0758 22.6813 56.5064 22.3583 57.0164 22.143C57.5378 21.9277 58.1101 21.82 58.7334 21.82ZM58.4954 29.3C59.2774 29.3 59.9178 29.0393 60.4164 28.518C60.9264 27.9967 61.1814 27.311 61.1814 26.461C61.1814 25.611 60.9264 24.9253 60.4164 24.404C59.9178 23.8827 59.2774 23.622 58.4954 23.622C57.9854 23.622 57.5264 23.741 57.1184 23.979C56.7104 24.2057 56.3874 24.5343 56.1494 24.965C55.9114 25.3957 55.7924 25.8943 55.7924 26.461C55.7924 27.0277 55.9114 27.5263 56.1494 27.957C56.3874 28.3877 56.7104 28.722 57.1184 28.96C57.5264 29.1867 57.9854 29.3 58.4954 29.3ZM73.9553 26.512C73.9553 26.6593 73.944 26.869 73.9213 27.141H66.7983C66.923 27.8097 67.246 28.3423 67.7673 28.739C68.3 29.1243 68.9573 29.317 69.7393 29.317C70.7367 29.317 71.5583 28.9883 72.2043 28.331L73.3433 29.64C72.9353 30.1273 72.4197 30.4957 71.7963 30.745C71.173 30.9943 70.4703 31.119 69.6883 31.119C68.691 31.119 67.8127 30.9207 67.0533 30.524C66.294 30.1273 65.7047 29.5777 65.2853 28.875C64.8773 28.161 64.6733 27.3563 64.6733 26.461C64.6733 25.577 64.8717 24.7837 65.2683 24.081C65.6763 23.367 66.2373 22.8117 66.9513 22.415C67.6653 22.0183 68.47 21.82 69.3653 21.82C70.2493 21.82 71.037 22.0183 71.7283 22.415C72.431 22.8003 72.975 23.35 73.3603 24.064C73.757 24.7667 73.9553 25.5827 73.9553 26.512ZM69.3653 23.52C68.6853 23.52 68.1073 23.724 67.6313 24.132C67.1667 24.5287 66.8833 25.0613 66.7813 25.73H71.9323C71.8417 25.0727 71.564 24.54 71.0993 24.132C70.6347 23.724 70.0567 23.52 69.3653 23.52ZM85.8534 29.198V33.023H83.8644V31H76.8604V33.023H74.8884V29.198H75.3134C75.8914 29.1753 76.2824 28.807 76.4864 28.093C76.7017 27.3677 76.8434 26.3477 76.9114 25.033L77.0304 21.922H84.5104V29.198H85.8534ZM78.8494 25.186C78.804 26.2287 78.719 27.0787 78.5944 27.736C78.4697 28.3933 78.243 28.8807 77.9144 29.198H82.3854V23.724H78.9004L78.8494 25.186ZM87.7512 21.922H89.8762V27.906L94.8912 21.922H96.8292V31H94.7042V25.016L89.7062 31H87.7512V21.922Z" fill="black"/>
<rect x="5" y="4" width="4" height="271" fill="#E51937"/>
<circle cx="7" cy="278" r="5.5" fill="white" stroke="#E51937" stroke-width="3"/>
</svg>

<svg width="193" height="285" fill="none" xmlns="http://www.w3.org/2000/svg"><path d="M27.922 9.795c.714.227 1.27.595 1.666 1.105.408.499.612 1.088.612 1.768 0 .714-.232 1.337-.697 1.87-.465.521-1.088.924-1.87 1.207-.77.283-1.615.425-2.533.425a9.243 9.243 0 0 1-2.397-.323 8.13 8.13 0 0 1-2.21-1.003l.714-1.615c.521.351 1.1.623 1.734.816a6.845 6.845 0 0 0 1.887.272c.895 0 1.638-.176 2.227-.527.6-.351.901-.833.901-1.445 0-.521-.215-.918-.646-1.19-.43-.272-1.026-.408-1.785-.408h-2.771V9.013h2.601c.657 0 1.173-.136 1.547-.408.374-.272.561-.64.561-1.105 0-.555-.255-.986-.765-1.292-.499-.306-1.139-.459-1.921-.459-.533 0-1.082.08-1.649.238-.567.147-1.1.368-1.598.663l-.697-1.785a7.846 7.846 0 0 1 1.938-.731 8.59 8.59 0 0 1 2.057-.255c.884 0 1.694.136 2.431.408.748.272 1.343.663 1.785 1.173.442.499.663 1.088.663 1.768 0 .59-.159 1.105-.476 1.547-.317.442-.754.782-1.309 1.02zm7.929-2.975c1.337 0 2.357.323 3.06.969.714.635 1.071 1.598 1.071 2.89V16h-2.006v-1.105c-.26.397-.635.703-1.122.918-.476.204-1.054.306-1.734.306-.68 0-1.275-.113-1.785-.34-.51-.238-.907-.561-1.19-.969a2.537 2.537 0 0 1-.408-1.411c0-.816.3-1.468.901-1.955.612-.499 1.57-.748 2.873-.748h2.346v-.136c0-.635-.193-1.122-.578-1.462-.374-.34-.935-.51-1.683-.51-.51 0-1.014.08-1.513.238-.487.159-.901.38-1.241.663l-.833-1.547c.476-.363 1.048-.64 1.717-.833a7.64 7.64 0 0 1 2.125-.289zm-.289 7.752c.533 0 1.003-.119 1.411-.357.42-.25.714-.6.884-1.054v-1.054h-2.193c-1.224 0-1.836.402-1.836 1.207 0 .385.153.691.459.918.306.227.731.34 1.275.34zm20.429-7.65V16H42.61V6.922h2.126v7.276h3.519V6.922h2.125v7.276h3.485V6.922h2.125zm1.309 7.276v3.672h-1.99V16h-1.512v-1.802H57.3zm1.548-7.276h2.125v5.984l5.015-5.984h1.938V16H65.8v-5.984L60.803 16h-1.955V6.922zm19.127 1.802h-3.179V16h-2.125V8.724h-3.196V6.922h8.5v1.802zM82.9 6.82c1.337 0 2.357.323 3.06.969.714.635 1.07 1.598 1.07 2.89V16h-2.005v-1.105c-.26.397-.635.703-1.122.918-.476.204-1.054.306-1.734.306-.68 0-1.275-.113-1.785-.34-.51-.238-.907-.561-1.19-.969a2.537 2.537 0 0 1-.408-1.411c0-.816.3-1.468.9-1.955.613-.499 1.57-.748 2.874-.748h2.346v-.136c0-.635-.193-1.122-.578-1.462-.374-.34-.935-.51-1.683-.51-.51 0-1.014.08-1.513.238-.488.159-.901.38-1.241.663l-.833-1.547c.476-.363 1.048-.64 1.717-.833A7.64 7.64 0 0 1 82.9 6.82zm-.29 7.752c.534 0 1.004-.119 1.412-.357.42-.25.714-.6.884-1.054v-1.054h-2.193c-1.224 0-1.836.402-1.836 1.207 0 .385.153.691.459.918.306.227.73.34 1.275.34zm15.795 1.547c-.918 0-1.746-.198-2.482-.595a4.416 4.416 0 0 1-1.734-1.649c-.408-.714-.612-1.519-.612-2.414 0-.895.204-1.694.612-2.397a4.416 4.416 0 0 1 1.734-1.649c.736-.397 1.564-.595 2.482-.595.929 0 1.762.198 2.499.595a4.301 4.301 0 0 1 1.717 1.649c.419.703.629 1.502.629 2.397 0 .895-.21 1.7-.629 2.414a4.301 4.301 0 0 1-1.717 1.649c-.737.397-1.57.595-2.5.595zm0-1.819c.782 0 1.428-.26 1.938-.782.51-.521.765-1.207.765-2.057 0-.85-.255-1.536-.765-2.057-.51-.521-1.156-.782-1.938-.782s-1.428.26-1.938.782c-.499.521-.748 1.207-.748 2.057 0 .85.249 1.536.748 2.057.51.521 1.156.782 1.938.782zm13.803-5.576h-3.179V16h-2.125V8.724h-3.196V6.922h8.5v1.802zm14.808-1.802l-4.25 9.809c-.397.986-.879 1.677-1.445 2.074-.567.408-1.253.612-2.057.612a4.22 4.22 0 0 1-1.343-.221c-.442-.147-.805-.351-1.088-.612l.85-1.564c.204.193.442.346.714.459.283.113.566.17.85.17.374 0 .68-.096.918-.289.249-.193.476-.516.68-.969l.153-.357-3.961-9.112h2.21l2.856 6.715 2.873-6.715h2.04zm10.601 7.276v3.825h-1.989V16h-7.004v2.023h-1.972v-3.825h.425c.578-.023.969-.391 1.173-1.105.215-.725.357-1.745.425-3.06l.119-3.111h7.48v7.276h1.343zm-7.004-4.012c-.045 1.043-.13 1.893-.255 2.55-.125.657-.351 1.145-.68 1.462h4.471V8.724h-3.485l-.051 1.462zm12.285-3.366c1.337 0 2.357.323 3.06.969.714.635 1.071 1.598 1.071 2.89V16h-2.006v-1.105c-.261.397-.635.703-1.122.918-.476.204-1.054.306-1.734.306-.68 0-1.275-.113-1.785-.34-.51-.238-.907-.561-1.19-.969a2.537 2.537 0 0 1-.408-1.411c0-.816.3-1.468.901-1.955.612-.499 1.57-.748 2.873-.748h2.346v-.136c0-.635-.193-1.122-.578-1.462-.374-.34-.935-.51-1.683-.51-.51 0-1.014.08-1.513.238a3.71 3.71 0 0 0-1.241.663l-.833-1.547c.476-.363 1.048-.64 1.717-.833a7.641 7.641 0 0 1 2.125-.289zm-.289 7.752c.533 0 1.003-.119 1.411-.357.419-.25.714-.6.884-1.054v-1.054h-2.193c-1.224 0-1.836.402-1.836 1.207 0 .385.153.691.459.918.306.227.731.34 1.275.34zM154.69 6.82c.884 0 1.672.193 2.363.578.703.385 1.253.93 1.649 1.632.397.703.595 1.513.595 2.431 0 .918-.198 1.734-.595 2.448a4.146 4.146 0 0 1-1.649 1.632c-.691.385-1.479.578-2.363.578-1.224 0-2.193-.408-2.907-1.224v4.403h-2.125V6.922h2.023v1.19c.352-.43.782-.754 1.292-.969a4.459 4.459 0 0 1 1.717-.323zm-.238 7.48c.782 0 1.423-.26 1.921-.782.51-.521.765-1.207.765-2.057 0-.85-.255-1.536-.765-2.057-.498-.521-1.139-.782-1.921-.782-.51 0-.969.119-1.377.357a2.46 2.46 0 0 0-.969.986c-.238.43-.357.93-.357 1.496 0 .567.119 1.065.357 1.496.238.43.561.765.969 1.003.408.227.867.34 1.377.34zm10.227-7.48c1.337 0 2.357.323 3.06.969.714.635 1.071 1.598 1.071 2.89V16h-2.006v-1.105c-.261.397-.635.703-1.122.918-.476.204-1.054.306-1.734.306-.68 0-1.275-.113-1.785-.34-.51-.238-.907-.561-1.19-.969a2.537 2.537 0 0 1-.408-1.411c0-.816.3-1.468.901-1.955.612-.499 1.57-.748 2.873-.748h2.346v-.136c0-.635-.193-1.122-.578-1.462-.374-.34-.935-.51-1.683-.51-.51 0-1.014.08-1.513.238a3.71 3.71 0 0 0-1.241.663l-.833-1.547c.476-.363 1.048-.64 1.717-.833a7.641 7.641 0 0 1 2.125-.289zm-.289 7.752c.533 0 1.003-.119 1.411-.357.419-.25.714-.6.884-1.054v-1.054h-2.193c-1.224 0-1.836.402-1.836 1.207 0 .385.153.691.459.918.306.227.731.34 1.275.34zM25.559 31.119c-.94 0-1.785-.198-2.533-.595a4.387 4.387 0 0 1-1.751-1.649c-.42-.714-.629-1.519-.629-2.414 0-.895.21-1.694.629-2.397a4.416 4.416 0 0 1 1.734-1.649c.748-.397 1.598-.595 2.55-.595.895 0 1.677.181 2.346.544a3.52 3.52 0 0 1 1.53 1.564l-1.632.952c-.26-.42-.59-.731-.986-.935a2.57 2.57 0 0 0-1.275-.323c-.793 0-1.45.26-1.972.782-.521.51-.782 1.196-.782 2.057s.255 1.553.765 2.074c.521.51 1.184.765 1.989.765.465 0 .89-.102 1.275-.306a2.64 2.64 0 0 0 .986-.952l1.632.952a3.717 3.717 0 0 1-1.547 1.581c-.669.363-1.445.544-2.329.544zm14.45-9.197V31h-2.107v-7.276H33.43V31h-2.125v-9.078h8.704zm11.368 4.59c0 .147-.011.357-.034.629H44.22c.125.669.448 1.201.97 1.598.532.385 1.19.578 1.971.578.998 0 1.82-.329 2.465-.986l1.14 1.309a3.837 3.837 0 0 1-1.548 1.105c-.623.25-1.326.374-2.108.374-.997 0-1.875-.198-2.635-.595a4.361 4.361 0 0 1-1.768-1.649c-.408-.714-.612-1.519-.612-2.414 0-.884.199-1.677.595-2.38a4.324 4.324 0 0 1 1.683-1.666c.714-.397 1.519-.595 2.414-.595.884 0 1.672.198 2.363.595a4.013 4.013 0 0 1 1.632 1.649c.397.703.595 1.519.595 2.448zm-4.59-2.992c-.68 0-1.258.204-1.734.612-.464.397-.748.93-.85 1.598h5.151c-.09-.657-.368-1.19-.833-1.598-.464-.408-1.042-.612-1.734-.612zm11.946-1.7c.884 0 1.672.193 2.363.578.703.385 1.253.93 1.65 1.632.396.703.594 1.513.594 2.431 0 .918-.198 1.734-.595 2.448a4.152 4.152 0 0 1-1.649 1.632c-.69.385-1.479.578-2.363.578-1.224 0-2.193-.408-2.907-1.224v4.403h-2.125V21.922h2.023v1.19a3.3 3.3 0 0 1 1.292-.969 4.456 4.456 0 0 1 1.717-.323zm-.238 7.48c.782 0 1.423-.26 1.921-.782.51-.521.765-1.207.765-2.057 0-.85-.255-1.536-.765-2.057-.498-.521-1.139-.782-1.92-.782-.51 0-.97.119-1.378.357a2.46 2.46 0 0 0-.969.986c-.238.43-.357.93-.357 1.496 0 .567.12 1.065.357 1.496.238.43.561.765.97 1.003.407.227.866.34 1.376.34zm15.46-2.788c0 .147-.011.357-.034.629h-7.123c.125.669.448 1.201.97 1.598.532.385 1.19.578 1.971.578.998 0 1.82-.329 2.465-.986l1.14 1.309a3.837 3.837 0 0 1-1.548 1.105c-.623.25-1.326.374-2.108.374-.997 0-1.875-.198-2.635-.595a4.361 4.361 0 0 1-1.768-1.649c-.408-.714-.612-1.519-.612-2.414 0-.884.199-1.677.595-2.38a4.324 4.324 0 0 1 1.683-1.666c.714-.397 1.519-.595 2.414-.595.884 0 1.672.198 2.363.595a4.013 4.013 0 0 1 1.632 1.649c.397.703.595 1.519.595 2.448zm-4.59-2.992c-.68 0-1.258.204-1.734.612-.464.397-.748.93-.85 1.598h5.151c-.09-.657-.368-1.19-.833-1.598-.464-.408-1.042-.612-1.734-.612zm16.488 5.678v3.825h-1.989V31H76.86v2.023h-1.972v-3.825h.425c.578-.023.97-.391 1.173-1.105.216-.725.357-1.745.425-3.06l.12-3.111h7.48v7.276h1.342zm-7.004-4.012c-.045 1.043-.13 1.893-.255 2.55-.124.657-.351 1.145-.68 1.462h4.471v-5.474H78.9l-.05 1.462zm8.902-3.264h2.125v5.984l5.015-5.984h1.938V31h-2.125v-5.984L89.706 31h-1.955v-9.078z" fill="#000"/><path fill="#E51937" d="M5 4h4v271H5z"/><circle cx="7" cy="278" r="5.5" fill="#fff" stroke="#E51937" stroke-width="3"/></svg>
